X:112
M:2/2
L:1/4
K:Bb
F | G A B B | B3/2 G/ F F/G/ | B B d d | B3/2 G/ F F | G G G d | B3/2 B/ B F | G G A A | c3/2 c/ B F/G/ | B B B d | B3/2 G/ F  F/G/ | B B d d | c3/2 d/ c !sintro!d/c/ | B B B c | c3/2 d/ e e | d d d B | c A B !eintro!|]
